X: 1
T: Reel de Montr\'eal
O: trad. Qu\'ebec
R: reel
Z: 2020 John Chambers <jc:trillian.mit.edu>
S: https://www.facebook.com/groups/Fiddletuneoftheday/
S: https://www.facebook.com/groups/Fiddletuneoftheday/photos/
M: C|
L: 1/8
K: G
|:\
g2fe dcBA | GBDG B2AG  | "D7"FADF AcBA | "G"GBDG Bdef |\
g2fe dcBA |
GBDG B2AG  | "D7"FGAB cdef | "G"g2gf [1 g2d2 :|2 g4 ||[K:D]\
|:\
"D"A2FA d2Ad | f2df a2ab |
"A7"a2g2 e2g2 | "D"b2a2 f2d2 |\
"D"A2FA d2Ad | f2df a2ab | "A7"a2g2 e2c2 |1 "D"d6 z2 :|2 "D"d2^d2 "D7"e2f2 |]
